X: 20
T:Argiers
M:4/4
L:1/8
N:Playford EDM 1651 ed.
N:This transcription from Jeremy Barlow's edition
N:Posted to uk.music.folk 04/03/2002
Z:Steve Mansfield 04 March 2002
K:D
defg e2 d2 | c2 A2 A4 | a2 e2 a3g | f2 d2 d4 |
defg e2 d2 | c3d e2 A2 | Bc d2 cdef | d8 ::
cd e2 cd e2 | a2 e2 a2 e2 | cd e2 cd e2 | a2 e2 a2 e2 |
a2 gf g2 ag | f2 ed e3 A | Bcde cdef | d8 :|
<end>
<start>
